app/dist/common/images/blue-cap-ag.svg

<svg height="18" viewBox="0 0 18 18" width="18" xmlns="http://www.w3.org/2000/svg"><path d="m0 0h18v18h-18z" fill="#f0f3fa"/><path d="m13 13h-8v-8h8zm-7.5-.5h7v-7h-7z" fill="#05171d"/><path d="m9 12.5h-3.5v-3.5h3.5zm-3-.5h2.5v-2.5h-2.5z" fill="#0077bd"/></svg>

<!-- by TradingView --><svg width="18" height="18" viewBox="0 0 18 18" xmlns="http://www.w3.org/2000/svg"><path fill="#F0F3FA" d="M0 0h18v18H0z"/><path d="M13 13H5V5h8v8Zm-7.5-.5h7v-7h-7v7Z" fill="#05171D"/><path d="M9 12.5H5.5V9H9v3.5ZM6 12h2.5V9.5H6V12Z" fill="#0077BD"/></svg>
